public/images/flags/ES.svg

<svg width="21" height="15" viewBox="0 0 21 15" fill="none" xmlns="http://www.w3.org/2000/svg">
<path d="M0 3H21V12H0V3Z" fill="#FCD669"/>
<path d="M0 4V2C0 1.46957 0.210712 0.960858 0.585785 0.585785C0.960858 0.210712 1.46957 0 2 0H19C19.5304 0 20.0391 0.210712 20.4142 0.585785C20.7893 0.960858 21 1.46957 21 2V4H0ZM19 15H2C1.46957 15 0.960858 14.7893 0.585785 14.4142C0.210712 14.0391 0 13.5304 0 13V11H21V13C21 13.5304 20.7893 14.0391 20.4142 14.4142C20.0391 14.7893 19.5304 15 19 15Z" fill="#E25950"/>
<path d="M5 5H7V7.5H5V5Z" fill="#F6F9FC"/>
<path opacity="0.5" d="M5 10C4.46957 10 3.96086 9.78929 3.58578 9.41422C3.21071 9.03914 3 8.53043 3 8V7.5H5V10Z" fill="#E25950"/>
<path d="M5 10V7.5H7V8C7 8.53043 6.78929 9.03914 6.41422 9.41422C6.03914 9.78929 5.53043 10 5 10ZM3 5H5V7.5H3V5Z" fill="#E25950"/>
</svg>

<svg width="21" height="15" fill="none" xmlns="http://www.w3.org/2000/svg"><path d="M0 3h21v9H0V3z" fill="#FCD669"/><path d="M0 4V2a2 2 0 0 1 2-2h17a2 2 0 0 1 2 2v2H0zm19 11H2a2 2 0 0 1-2-2v-2h21v2a2 2 0 0 1-2 2z" fill="#E25950"/><path d="M5 5h2v2.5H5V5z" fill="#F6F9FC"/><path opacity=".5" d="M5 10a2 2 0 0 1-2-2v-.5h2V10z" fill="#E25950"/><path d="M5 10V7.5h2V8a2 2 0 0 1-2 2zM3 5h2v2.5H3V5z" fill="#E25950"/></svg>
